**kern
*staff1
*head1[head1a]
*solo1[solo1b]
*solo1[solo1aa]
*solo1[solo1a]
*solo2[solo2b]
*solo2[solo2a]
*clefG2
*k[]
*D-:
*M4/4
*>head1a
{8a-\L
16b-\L
16cc\JJ
=1
4dd-\
8d-/L
8f/J
4r
8r
8d-/
=2||
8g-/L
16a-/L
16g-/J
8f/
8d-/J
8e-/L
8f/
8g-/
8a-/J
=3
8f/L
8A-/
8B-/
[8c/J
4c/]}
4r
=4
2r
4r
{16b/LL
16g/
16e-/
16d-/JJ
=5
[4b-\
16b-/LL]
16g-/
16e-/
16B-/JJ
8d-/L
8B-/
8c/
[8f/J
=6
4f/]
8a-/L
[8e-/J
4e-/]
4r
=7
8c/L
8d-/
8c/
8B-/J
4c/}
4r
=8
4r
8r
{[8dd-\
8dd-\]
8r
4cc\
=9
8b\L
8b\J
8r
8b\
8b-\
8r
8a/L
[8a-/J
=10||
4a-/]
8r
8a-/
8g/
8r
8g-/
8r
=11
8e/L
16g-/L
16e/J
8e-/
8en/J
4g-/
8e/L
[8e-/J
=12
4e-/]
8d-/L
8A-/J
4c/
8e-/L
[8B-/J
=13
4B-/]}
4r
4r
8r
{24ff\LL
24ee-\
24dd-\JJ
=14
8b-/L
8g-/
8e-/
8B-/J
8d-/L
8Bn/
8c/
8a/J
=15
8f#/L
8g/
8a-/
8c/J
8d-/L
8g-/
8e-/
8en/J
=16
8f/L
8A/J
12B-/L
12d-/
12f/J
4b-\
*>solo1b
8dd-/L
[8a-/J
=17
24a-/LL]2G-:dom
24b-/
24a-/JJ
8g-/L
8e/
8d-/J
24an/LL
24b-/
24a/JJ
8f/L
8dn/
8B/J
=18||
8a-/L
8d-/
8e-/
[8en/J
4e/]}
4r
=19
4r
8r
{16e-/LL
16g-/JJ
8dd-\L
8cc\
8b\
8b-\J
=20
8a/L
8d-/J}
4r
{4.a-/
8b\
=21
4g-/}
4r
4r
8r
{[8d/
=22
8d/L]
8e/
8f#/
8g#/J
4cc#\
8ee\L
[8b\J
=23
8b\]
8r
24ff#\LL
24gg\
24ff#\JJ
16ee\LL
16dd\JJ
16cc#/LL
16d#/
16e/
16f#/J
8g/J}
8r
=24
4r
*>solo1aa
{16cc\LL
16dd-\
16ee-\
16cc\JJ
16dd-\LL
16cc\
16b-\
16g-\JJ
16d/LL
16B-/
16d-/
16B-/JJ
=25
16c/LL
16f/
16e/
16c/JJ
16a-/LL
16g-/
16e-/
16en/JJ
8.f/L
16A-/Jk
16e/LL
16A-/
16B-/
16e-/JJ
=26||
4d-/}
4r
{16c/LL
16c#/
16e-/
16cn/JJ
16d-/LL
16e-/
16f/
16g-/JJ
=27
4a-/
8r
8f/
24cc\LL
24dd-\
24cc\JJ
8b\L
8b-\
8an\J
=28
8a-/L
8g-/
8f/
8e-/J
8d/L
8b/
8a-/
8an/J
=29
8b-/L
8g-/J
12e-/L
12B-/
12G-/J
4f/
4e-/
=30
8r
8B/
2c/
8e-/L
8c/J
=31
4d-/
4a-;/
4a-;/
4a-;/
=32
8a-/L
8g-/
8e-/
8B-/J
4f/
4a-/}
=33
1r
=34||
1r
=35
1r
=36
1r
=37
1r
=38
1r
=39
1r
=40
1r
=41
1r
=42
1r
=43
1r
=44
1r
=45
1r
=46
1r
=47
1r
=48
1r
=49
1r
=50
1r
=51
1r
=52
1r
=53
1r
=54
1r
=55
1r
=56
1r
=57
1r
=58
1r
=59
1r
=60
1r
=61
1r
=62
1r
=63
1r
=64
1r
=65
1r
=66||
1r
=67
1r
=68
1r
=69
1r
=70
1r
=71
1r
=72
1r
=73
1r
=74
1r
=75
1r
=76
1r
=77
1r
=78
1r
=79
1r
=80
1r
=81
1r
=82
1r
=83
1r
=84
1r
=85
1r
=86
1r
=87
1r
=88
1r
=89
1r
=90
1r
=91
1r
=92
1r
=93
1r
=94
1r
=95
1r
=96
2r
4r
*>solo1a
{8f/L
8g-/J
=97
4a-/
8dd-\L
8cc\J
4b-\
8f/L
8g-/J
=98||
4a-/
8ff\L
8dd-\J
4ee-\
8f/L
8g-/J
=99
4a-/
8dd-\L
8cc\J
4b-\
8f/L
8g-/J
=100
4a-/
8B/L
8A/J
8B-/L
8g-/
8d/
8B-/J
=101
4f/
8e-/L
8B-/J
8d-/L
8B-/
8c/
[8a-/J
=102
4a-/]
2e-/}
4r
=103
1r
=104
2r
8r
{4a-/
8b-\
=105
8cc\L
8dd-\
8cc\
8b-\J
[2cc\
=106||
4cc\_
8cc\L]
16b-\L
16a\JJ
8a-/L
8f/
8c/
8A-/J
=107
4e-/
2e-/}
4r
=108
4r
8r
{8d-/
8b/L
8g/
8e/
8d-/J
=109
4b-\
12g-/L
12e-/
12B-/J
8d\L
[8b-\
8b-\J]
24g-/LL
24d/
[24B-/JJ
=110
16B-/LK]1A-:dom
8d/
16B-/Jk
16c/LL
16g-/
16e-/
16B-/JJ
16d-/LL
16B-/J
8c/J}
4r
=111
4r
8r
{8b\
24a/LL
24b/
24a/JJ
8g-/L
8gn/
[8a-/J
=112
4a-/]}
4r
4r
8r
*>solo2b
{16d-/LL
16e/JJ
=113
12f#\L
12b\
12dd#\J
8ff#\L
8dd#\J
8ee/L
8g/
8g#/
8b/J
=114||
2dd#\
4ddn\
8e/L
[8cc#/J
=115
4cc#\]
8b/L
8f#/J
16g#/LK
[8.a/J
4a/]}
=116
2r
4r
{8b\L
8cc#\J
=117
8dd\L
8cc#\
8dd\
8cc#\J
8b/L
8a/
8g#/
8f#/J
=118
8e/L
8d#/J
16dn/LL
16e/
16f#/
16a/JJ
4cc#\
8ee\L
[8b\J
=119
16b/LL]
16d#/
16e/
16f#/JJ
16g/LL
16f#/
16e/
16dn/JJ
16c#/LL
16d/
16e/JJ}
16r
4r
=120
4r
8r
*>solo2a
{16cc\LL
16b\JJ
16b-/LL
16g-/
16e-/
16c/JJ
16d-/LL
16B-/
16c/
[16f/JJ
=121
16f/LL]
16e-/
16a-/
16g-/JJ
16f/LL
16d-/
16B-/
16A-/JJ
16e-/LL
16c/
16d-/
16e-/JJ
24f/LL
24g-/
24gn/JJ
16an/LL
16g-/JJ
=122||
16f/LL
16d-/
16B-/
16A/JJ
4A-/}
4r
8r
{8cc\
=123
4dd-'\
4a-'/
4a-'/
4a-'/
=124
12a-/L
12an/
12a-/J
8f/L
8g-/J
8a-/L
8f/
8c/
8A-/J
=125
8e-/L
8B-/
8e-/
[8B-/J
4B-/]}
4r
=126
8r
{24f/LL
24e-/
24d-/JJ
8B-/L
8d-/J
8c/}
8r
8r
{8a/
=127
8f#/L
8g/
8a-/
8c/J
8d-/L
8g-/
8e-/
8en/J
=128
8f/L
8A-/
8B-/
[8e/J
8e/]
32c/LLL
32B-/
32A-/
32G-/JJJ
4e-/}
==
*-
